icons/ram-24-24.svg

<svg width="24" height="24" viewBox="0 0 24 24" fill="none" xmlns="http://www.w3.org/2000/svg">
<g clip-path="url(#clip0_0_16)">
<path fill-rule="evenodd" clip-rule="evenodd" d="M3 2H21C22.1046 2 23 2.89543 23 4V9.5C23 10.6046 22.1046 11.5 21 11.5H3C1.89543 11.5 1 10.6046 1 9.5V4C1 2.89543 1.89543 2 3 2ZM3 3.5C2.72386 3.5 2.5 3.72386 2.5 4V9.5C2.5 9.77614 2.72386 10 3 10H21C21.2761 10 21.5 9.77614 21.5 9.5V4C21.5 3.72386 21.2761 3.5 21 3.5H3Z" fill="#1F2328"/>
<rect x="4.5" y="8" width="1.5" height="2" fill="#1F2328"/>
<rect x="18" y="8" width="1.5" height="2" fill="#1F2328"/>
<path d="M19.5 8H4.5V7.5C4.5 6.94772 4.94772 6.5 5.5 6.5H18.5C19.0523 6.5 19.5 6.94772 19.5 7.5V8Z" fill="#1F2328"/>
<path fill-rule="evenodd" clip-rule="evenodd" d="M3 12.5H21C22.1046 12.5 23 13.3954 23 14.5V20C23 21.1046 22.1046 22 21 22H3C1.89543 22 1 21.1046 1 20V14.5C1 13.3954 1.89543 12.5 3 12.5ZM3 14C2.72386 14 2.5 14.2239 2.5 14.5V20C2.5 20.2761 2.72386 20.5 3 20.5H21C21.2761 20.5 21.5 20.2761 21.5 20V14.5C21.5 14.2239 21.2761 14 21 14H3Z" fill="#1F2328"/>
<rect x="4.5" y="18.5" width="1.5" height="2" fill="#1F2328"/>
<rect x="18" y="18.5" width="1.5" height="2" fill="#1F2328"/>
<path d="M19.5 18.5H4.5V18C4.5 17.4477 4.94772 17 5.5 17H18.5C19.0523 17 19.5 17.4477 19.5 18V18.5Z" fill="#1F2328"/>
</g>
<defs>
<clipPath id="clip0_0_16">
<rect width="24" height="24" fill="white"/>
</clipPath>
</defs>
</svg>

<svg xmlns="http://www.w3.org/2000/svg" width="24" height="24" viewBox="0 0 24 24"><path d="M3 2h18a2 2 0 0 1 2 2v5.5a2 2 0 0 1-2 2H3a2 2 0 0 1-2-2V4a2 2 0 0 1 2-2Zm0 1.5a.5.5 0 0 0-.5.5v5.5a.5.5 0 0 0 .5.5h18a.5.5 0 0 0 .5-.5V4a.5.5 0 0 0-.5-.5Z"/><path d="M4.5 8H6v2H4.5ZM18 8h1.5v2H18Zm1.5 0h-15v-.5a1 1 0 0 1 1-1h13a1 1 0 0 1 1 1ZM3 12.5h18a2 2 0 0 1 2 2V20a2 2 0 0 1-2 2H3a2 2 0 0 1-2-2v-5.5a2 2 0 0 1 2-2ZM3 14a.5.5 0 0 0-.5.5V20a.5.5 0 0 0 .5.5h18a.5.5 0 0 0 .5-.5v-5.5a.5.5 0 0 0-.5-.5Z"/><path d="M4.5 18.5H6v2H4.5Zm13.5 0h1.5v2H18Zm1.5 0h-15V18a1 1 0 0 1 1-1h13a1 1 0 0 1 1 1Z"/></svg>
